X:1
T:Fenesta vascia
T:Fenesta vascia
T:Calascionata napoletana
T:XVI secolo Guglielmo Cottrau set it to music 
T:words adapted to the Neapolitan dialect of 1800 by Giulio Genoino 
T: Vorría addeventare no picciuotto, co na langella a ghire vennenn'acqua, Pe' mme ne jí da’ chisti palazzuotte: Belli ffemmene meje, ah! Chi vó' acqua... Se vota na nennella da llá 'ncoppa: Chi è 'sto ninno ca va vennenn'acqua? E io responno, co parole accorte: Só' lacreme d'ammore e non è acqua!...
T:by IMSLP-public domain
T:by IMSLP-public domain
T:by IMSLP-public domain
C:XVI secolo Guglielmo Cottrau set it to music
Z:words adapted to the Neapolitan dialect of 1800 by Giulio Genoino
Z:by IMSLP-public domain
%%score 1 ( 2 3 )
L:1/8
Q:1/4=98
M:6/8
K:G
V:1 treble nm="Canto"
V:2 bass nm="Piano"
V:3 bass 
V:1
"^Allegretto con brio" z6 | z2 z z2!<(! D | G2 A B2 c!<)! | d2 d e2 d | !>!d3- (d2 c/B/) | A6- | %6
w: |Fe\-|ne\- sta va\- scia e|pa\- tro\- na cru\-|de\- _ _ _|le|
 A2 z z2 z | z2 z z2 F | A2 c !>!e2 d | d2 B c2 !tenuto!A | (G3 !turn!B2 A | G2) z z2 z | z6 | %13
w: _|Quan\-|ta so\- spi\- re|maje fat\- to jer\-|ta\- _ _|re||
 z2 z z2 D | G2 A B2 c | d2 d e2 d | !>!d3- (d2 c/B/) | A6- | A2 z z2 z | z2 z z2 F | %20
w: M'ar\-|de sto co\- re|comm' a na can\-|ne\- _ _ _|la|_|Bel\-|
 A2 c !>!e2 d | d2 B c2 A | (G3 !turn!B2 A | G2) z z2 z | z6 | z2 z z2 G | B2 c d2 e | =f2 d B2 G | %28
w: la quan\- no te|sen\- to an\- no\- me\-|na\- _ _|re||Oje|pi\- glia la spe\-|rien\- zia de la|
 A3- (A>GF/G/) | E2 z z2 z | z6 | z2 z z2 G | B2 c d2 e | =f2 d B2 G | A3- (A>GF/G/) | E2 z z2 E | %36
w: ne\- _ _ _ _|ve||La|ne\- ve è fred\- da|e se fa ma\- ni\-|a\- _ _ _ _|re E|
 ^G2 A B2 c | d2 ^d e2 B | d3- (d>cB/c/) | A2 z z2 z |[Q:1/4=90]"^rallentando" .A .A .A !>!B2 A | %41
w: tu com\- me si|tant' as\- pra e cru\-|de\- _ _ _ _|le|Muor\- to mme vi\- di e|
[Q:1/4=85] G2 G F2 G |[Q:1/4=83] B3- B2 A |[Q:1/4=98] G2 z z2 z | z6 | z6 | z6 | z6 | z6 | z6 | %50
w: non mme vuo aju\-|ta\- _ _|re.|||||||
 z6 | z6 | z6!D.C.! |] %53
w: |||
V:2
[I:staff -1] z2[I:staff +1] [G,B,] D,2 [G,B,] |[I:staff -1] z2[I:staff +1] [G,B,] D,2 [G,B,] | %2
[I:staff -1] z2[I:staff +1] [G,B,] D,2 [G,B,] |[I:staff -1] z2[I:staff +1] [G,B,] D,2 [G,B,] | %4
[I:staff -1] z2[I:staff +1] [G,B,] D,2 [G,B,] |[I:staff -1] z2[I:staff +1] [G,B,] D,2 [G,B,] | %6
[I:staff -1] z2[I:staff +1] [G,B,] D,2 [G,B,] |[I:staff -1] z2[I:staff +1] [G,B,] D,2 [G,B,] | %8
[I:staff -1] z2[I:staff +1] [G,B,] D,2 [G,B,] |[I:staff -1] z2[I:staff +1] [G,B,] E,2 [G,B,] | %10
[I:staff -1] z2[I:staff +1] [G,B,] D,2 [G,B,] |[I:staff -1] z2[I:staff +1] [G,B,] D,2 [G,B,] | %12
[I:staff -1] z2[I:staff +1] [G,B,] D,2 [G,B,] |[I:staff -1] z2[I:staff +1] [G,B,] E,2 [G,B,] | %14
[I:staff -1] z2[I:staff +1] [G,B,] D,2 [G,B,] |[I:staff -1] z2[I:staff +1] [G,B,] D,2 [G,B,] | %16
[I:staff -1] z2[I:staff +1] [A,C] D,2 [A,C] |[I:staff -1] z2[I:staff +1] [A,C] D,2 [A,C] | %18
[I:staff -1] z2[I:staff +1] [A,C] D,2 [A,C] |[I:staff -1] z2[I:staff +1] [A,C] D,2 [A,C] | %20
[I:staff -1] z2[I:staff +1] [A,C] D,2 [A,C] |[I:staff -1] z2[I:staff +1] [G,B,] D,2 [G,B,] | %22
[I:staff -1] z2[I:staff +1] [G,B,] D,2 [G,B,] |[I:staff -1] z2[I:staff +1] [G,B,] D,2 [G,B,] | %24
[I:staff -1] z2[I:staff +1] [G,B,] D,2 [G,B,] |[I:staff -1] z2[I:staff +1] [G,B,] E,2 [G,B,] | %26
[I:staff -1] z2[I:staff +1] [G,B,] D,2 [G,B,] |[I:staff -1] z2[I:staff +1] [=F,B,] D,2 [F,B,] | %28
[I:staff -1] z2[I:staff +1] [G,C] E,2 [G,C] |[I:staff -1] z2[I:staff +1] [G,C] E,2 [G,C] | %30
[I:staff -1] z2[I:staff +1] [G,C] E,2 [G,C] |[I:staff -1] z2[I:staff +1] [G,C] E,2 [G,C] | %32
[I:staff -1] z2[I:staff +1] [=F,B,] D,2 [F,B,] |[I:staff -1] z2[I:staff +1] [=F,B,] D,2 [F,B,] | %34
[I:staff -1] z2[I:staff +1] [G,C] E,2 [G,C] |[I:staff -1] z2[I:staff +1] [G,C] E,2 [G,C] | %36
[I:staff -1] z2[I:staff +1] [B,D] E,2 [B,D] |[I:staff -1] z2[I:staff +1] [B,D] E,2 [B,D] | %38
[I:staff -1] z2[I:staff +1] [A,C] E,2 [A,C] |[I:staff -1] z2[I:staff +1] [A,C] E,2 [A,C] | %40
[I:staff -1] z2[I:staff +1] [A,C] E,2 [A,C] |[I:staff -1] z2[I:staff +1] [B,D] D,2 [B,D] | %42
[I:staff -1] z2[I:staff +1] [A,C] D,2 [A,C] |[I:staff -1] z2[I:staff +1] [B,D] D,2 [B,D] | %44
[I:staff -1] z2 z z2 D | G2 A B2 c |!f! d2 e f2 g | !>!f3- f2 e | d2 c B2 A | !>!e3- e2 d | %50
 c2 A E2 F | G2 z z2 z | !fermata!z6 |] %53
V:3
 G,,2 z z2 z | G,,2 z z2 z | G,,2 z z2 z | G,,2 z z2 z | D,,2 z z2 z | D,,2 z z2 z | D,,2 z z2 z | %7
 D,,2 z z2 z | D,,2 z z2 z | G,,2 z C,,2 z | D,,2 z D,,2 z | G,,2 z z2 z | G,,2 z z2 z | %13
 G,,2 z z2 z | G,,2 z z2 z | G,,2 z z2 z | D,,2 z z2 z | D,,2 z z2 z | D,,2 z z2 z | D,,2 z z2 z | %20
 D,,2 z z2 z | G,,2 z C,,2 z | D,,2 z D,,2 z | G,,2 z z2 z | G,,2 z z2 z | G,,2 z z2 z | %26
 G,,2 z z2 z | G,,2 z z2 z | G,,2 z z2 z | G,,2 z z2 z | G,,2 z z2 z | G,,2 z z2 z | G,,2 z z2 z | %33
 G,,2 z z2 z | G,,2 z z2 z | G,,2 z z2 z | G,,,3 B,,,3 | E,,2 z z2 z | A,,,3 C,,3 | E,,2 z z2 z | %40
 A,,,2 z C,,2 z | D,,2 z z2 z | D,,2 z z2 z | G,,2 z z2 z | G,,2 [G,B,] D,2 [G,B,] | %45
 G,,2 [G,B,] D,2 [G,B,] | G,,2 [G,B,] D,2 [G,B,] | C,,2 [E,A,] C,2 [E,A,] | %48
 C,,2 [E,A,] C,2 [E,A,] | D,,2 [G,B,] D,2 [G,B,] | D,,2 [A,C] D,2 [A,C] | G,,2 [G,B,] D,2 [G,B,] | %52
 G,,2 z z2 !fermata!z |] %53

